X:1
T:Title
%%score 1 { 2 | 3 }
L:1/8
Q:1/4=115
M:3/4
K:D
V:1 treble nm="Grand Piano, Soprano"
V:2 bass nm="Choir Pad, Come to Him Now (Purvis)"
V:3 bass 
V:1
 [DF]2 [DF]2 [DF]2 | [DA]3 [DB] [DA]2 | [CA]2 [CE]2 [CG]2 | [DF]6 | [DB]2 [DB]2 [DB]2 | %5
w: By~Charles~F.~Green * *|||||
 [FA]3 [EG] [DF]2 | [EA]2 [EG]2 [DF]2 | [CE]6 | [CE]2 [CA]2 [CE]2 | [DF]3 [EG] [DF]2 | %10
w: |||||
 [FA]2 [Fd]2 [FA]2 | [GB]6 | [Gd]2 [Gc]2 [GB]2 | [FA]3 [EG] [DF]2 | [CG]2 [CF]2 [CE]2 | D6 | %16
w: ||||||
 [FA]2 [FA]2 [FA]2 | [Fd]4 [Fd]2 | [Gc]2 [GB]2 [Gc]2 | [Fd]6 | [Fd]2 [Ac]2 [GB]2 | %21
w: |||||
 [FA]3 [EG] [DF]2 | [DB]2 [DA]2 [DF]2 | [CE]6 | [GA]2 [GB]2 [Gc]2 | [Fd]4 [Fd]2 | %26
w: |||||
 [Gc]2 [GB]2 [Gc]2 | [Fd]6 | [Fd]2 [Ac]2 [GB]2 | [FA]3 [EG] [DF]2 | [CG]2 [CF]2 [CE]2 | D6- | %32
w: ||||||
 D2 z2 z2 |] %33
w: |
V:2
 A,2 A,2 A,2 | F,3 G, F,2 | A,2 A,2 A,2 | A,6 | G,2 G,2 G,2 | A,3 A, A,2 | A,2 A,2 A,2 | A,6 | %8
 A,2 E,2 A,2 | A,3 A, A,2 | D2 A,2 D2 | D6 | B,2 C2 D2 | D3[K:bass] A, A,2 | A,2 A,2 G,2 | F,6 | %16
 D2 D2 D2 | A,4 A,2 | E2 E2 E2 | D6 | A,2 A,2 D2 | D3 A, A,2 | G,2 F,2 A,2 | A,6 | C2 D2 E2 | %25
 D4 A,2 | A,2 A,2 A,2 | A,6 | A,2 A,2 D2 | D3 A, A,2 | A,2 A,2 A,2 | F,6- | F,2 z2 z2 |] %33
V:3
 D,2 D,2 D,2 | D,3 D, D,2 | A,,2 A,,2 A,,2 | D,6 | z6 | D,3 D, D,2 | C,2 C,2 D,2 | A,,6 | %8
 A,,2 A,,2 A,,2 | D,3 D, D,2 | D,2 D,2 D,2 | G,6 | G,2 G,2 G,2 | A,4 z2 | A,,2 A,,2 A,,2 | D,6 | %16
 D,2 D,2 D,2 | D,4 D,2 | A,,2 A,,2 A,,2 | [D,A,]6 | D,2 D,2 D,2 | D,3 D, D,2 | D,2 D,2 D,2 | A,,6 | %24
 A,,2 A,,2 A,,2 | D,4 D,2 | z6 | D,6 | D,2 D,2 D,2 | D,3 D, D,2 | A,,2 A,,2 A,,2 | D,6- | %32
 D,2 z2 z2 |] %33

